X: 18
T: Missa Dio te salvi Gotterello / Credo
N: Derived from Mar1004c-Missa_Dio_te_salvi_Gotterello-Credo.krn
C: Johannes Martini
%%abc-version 2.0
%%abcx-abcm2ps-target-version 5.9.1 (29 Sep 2008)
%%abc-creator hum2abc beta
%%abcx-conversion-date 2019/02/17 07:19:40
%%abc-edited-by Jesse Rodin
%%abc-edited-by Chris Gage 01-22-2014
%%abcx-initial-encoding-date 2015/03/07/
%%humdrum-veritas 2586310966
%%humdrum-veritas-data 3044351355
%%linebreak <none>
%%barnumbers 0
L: 1/4
M: 4/2
Q: 1/2=120
%%staves [1 2 3 4]
V: 1 clef=treble
V: 2 clef=treble-8
V: 3 clef=treble-8
V: 4 clef=bass
K: C
[V:1] A4A2A2- | 
[V:2] z8 | 
[V:3] z8 | 
[V:4] A,4F,2F,2 | 
[V:1] A2G2F2F2 | 
[V:2] z8 | 
[V:3] z4A4 | 
[V:4] F,2E,2D,3C, | 
[V:1] E4z4 | 
[V:2] e4e2e2- | 
[V:3] A2A2A2G2 | 
[V:4] A,,4A,,2C,2 | 
[V:1] z8 | 
[V:2] e2d2c2c2 | 
[V:3] F2F2E2A2- | 
[V:4] D,2D,2A,,2A,,2 | 
[V:1] z8 | 
[V:2] B4A2d2- | 
[V:3] A2G2A2GF | 
[V:4] E,4A,,2z2 | 
[V:1] E4F4- | 
[V:2] d2c2d2cB | 
[V:3] E4D4 | 
[V:4] z4D,4 | 
[V:1] F4G4 | 
[V:2] A4G2z2 | 
[V:3] z4E4 | 
[V:4] D,4G,2G,2 | 
[V:1] A8 | 
[V:2] d2f3ed2- | 
[V:3] F8 | 
[V:4] D,4D,2D,2 | 
[V:1] G4F4 | 
[V:2] d2^c2d4 | 
[V:3] G4A4 | 
[V:4] E,4D,4 | 
[V:1] E6D2 | 
[V:2] B2c4A2- | 
[V:3] G6F2 | 
[V:4] E,2C,4D,2 | 
[V:1] D6^CB, | 
[V:2] A2G2A4- | 
[V:3] D4E4- | 
[V:4] B,,2B,,2A,,4- | 
[V:1] ^C4D4 | 
[V:2] A4F4 | 
[V:3] E2E2D4 | 
[V:4] A,,4z2D,2- | 
[V:1] z8 | 
[V:2] z8 | 
[V:3] F4E4- | 
[V:4] D,2D,2C,2A,,2 | 
[V:1] z8 | 
[V:2] z2d4d2 | 
[V:3] E2F2G4 | 
[V:4] C,2D,2B,,4 | 
[V:1] z4z2d2- | 
[V:2] c2A2c2d2 | 
[V:3] A4z4 | 
[V:4] A,,4E,2F,2 | 
[V:1] d2d2c2A2 | 
[V:2] B4A2e2 | 
[V:3] z8 | 
[V:4] G,4A,4 | 
[V:1] c2d2B4 | 
[V:2] f2a2g4 | 
[V:3] z2d4d2 | 
[V:4] F,2D,2G,2G,2 | 
[V:1] A2GFE2A2- | 
[V:2] e4e2f2 | 
[V:3] c2A2c2d2 | 
[V:4] A,4A,2D,2 | 
[V:1] A2^G2A4 | 
[V:2] gfedc4 | 
[V:3] B4A4 | 
[V:4] E,2E,2A,,4 | 
[V:1] z8 | 
[V:2] A3Bc2d2 | 
[V:3] z8 | 
[V:4] A,2A,2A,2G,2- | 
[V:1] z4A2A2 | 
[V:2] e2g2f2d2- | 
[V:3] z8 | 
[V:4] G,2E,2F,4 | 
[V:1] A2G4E2 | 
[V:2] dce4e2 | 
[V:3] z8 | 
[V:4] F,2E,4C,2 | 
[V:1] F4F2E2- | 
[V:2] d4c2c2- | 
[V:3] A2A2A2G2- | 
[V:4] D,4A,,2C,2- | 
[V:1] E2E2A4 | 
[V:2] cde2d4 | 
[V:3] G2E2F4 | 
[V:4] C,2C,2D,4 | 
[V:1] A2G4F2 | 
[V:2] c2e4d2 | 
[V:3] F2E4F2 | 
[V:4] A,,2C,4D,2 | 
[V:1] E6E2- | 
[V:2] c4c2c2- | 
[V:3] A4A2G2- | 
[V:4] A,,6C,2- | 
[V:1] E2D2C2F2- | 
[V:2] c2d2e2d2 | 
[V:3] G2G2A4 | 
[V:4] C,2B,,2A,,2D,2 | 
[V:1] FEE4D2 | 
[V:2] B2c2A2B2 | 
[V:3] G2E2F4 | 
[V:4] E,2C,2D,4 | 
[V:1] E8 | 
[V:2] A8 | 
[V:3] E4z4 | 
[V:4] A,,8 | 
[V:1] z8 | 
[V:2] z8 | 
[V:3] G2G2A2GF | 
[V:4] E,2E,2F,2D,2- | 
[V:1] G2G2A2GF | 
[V:2] e2e2f2d2- | 
[V:3] E4D4 | 
[V:4] D,2C,2F,2G,2 | 
[V:1] E4D4 | 
[V:2] d2^c2d4 | 
[V:3] z8 | 
[V:4] A,4D,4 | 
[V:1] F6F2 | 
[V:2] d2d2d4 | 
[V:3] A6A2 | 
[V:4] D,6D,2 | 
[V:1] F4F2F2 | 
[V:2] d2d2d4 | 
[V:3] A4A2A2 | 
[V:4] D,4D,2D,2 | 
[V:1] E4F2A2- | 
[V:2] z4d4 | 
[V:3] c4d2A2 | 
[V:4] A,,4D,2F,2 | 
[V:1] A2G2F2E2- | 
[V:2] e4c4 | 
[V:3] B4A4 | 
[V:4] E,4A,,2C,2- | 
[V:1] E2D4^C2 | 
[V:2] c2B2A2A2 | 
[V:3] G2F2E4 | 
[V:4] C,2D,2A,,4 | 
[V:1] D8 | 
[V:2] A4F2A2- | 
[V:3] D8 | 
[V:4] D,4F,4- | 
[V:1] F4E4 | 
[V:2] A2A2c4 | 
[V:3] D4C4 | 
[V:4] F,4G,4 | 
[V:1] F4G4- | 
[V:2] A4c2d2 | 
[V:3] D4E4- | 
[V:4] F,4C,4- | 
[V:1] G2FED4 | 
[V:2] e4A2B2 | 
[V:3] E4F4 | 
[V:4] C,4D,4 | 
[V:1] C4D4- | 
[V:2] c2A4G2 | 
[V:3] E4D4- | 
[V:4] A,,4_B,,4- | 
[V:1] D4C8 | 
[V:2] G3FA8 | 
[V:3] D4E8 | 
[V:4] B,,4A,,8 | 
[V:1] [M:3/1]E4F2A4^G2 | 
[V:2] [M:3/1]c4d2A2B2B2 | 
[V:3] [M:3/1]z12 | 
[V:4] [M:3/1]z12 | 
[V:1] A4z4z4 | 
[V:2] A4z4z4 | 
[V:3] A4B2d4^c2 | 
[V:4] F,4G,2D,2E,4 | 
[V:1] F3EF2G4F2 | 
[V:2] A4A2B2c2A2- | 
[V:3] d6z2z4 | 
[V:4] D,6z2z4 | 
[V:1] E4D2E6 | 
[V:2] A2F4E6 | 
[V:3] z4z2c3Bc2 | 
[V:4] z4z2A,,4A,,2 | 
[V:1] z12 | 
[V:2] z12 | 
[V:3] d4c2A4^G2 | 
[V:4] B,,4C,2D,2B,,4 | 
[V:1] E4C2D4B,2 | 
[V:2] c3de2f4d2 | 
[V:3] A6z2z4 | 
[V:4] A,,6z2z4 | 
[V:1] A,2z2z4z4 | 
[V:2] e2z2z4z4 | 
[V:3] A4F2G4E2 | 
[V:4] A,,2C,2D,2E,3B,,^C,2 | 
[V:1] A8G4 | 
[V:2] d4c2d2e2c2 | 
[V:3] D2z2z4z4 | 
[V:4] D,4F,4E,4 | 
[V:1] F4_B2A2G2F2 | 
[V:2] d4z2A4A2 | 
[V:3] d12 | 
[V:4] D,12 | 
[V:1] E4A2A4^G2 | 
[V:2] A3GE2F2G2E2 | 
[V:3] c3de2d2c2B2 | 
[V:4] A,,4C,2D,2E,4 | 
[V:1] A12- | 
[V:2] e2f3ed4^c2 | 
[V:3] A4D2F2E4 | 
[V:4] A,,4D,4A,,4 | 
[V:1] A12 | 
[V:2] d12 | 
[V:3] D12 | 
[V:4] A,12 | 
[V:1] [M:4/2]z8 | 
[V:2] [M:4/2]z8 | 
[V:3] [M:4/2]z8 | 
[V:4] [M:4/2]D,3D,D,2C,2 | 
[V:1] A3AA2G2 | 
[V:2] z8 | 
[V:3] z8 | 
[V:4] D,2C,B,,A,,2B,,2 | 
[V:1] A2GFE2z2 | 
[V:2] z8 | 
[V:3] A3AA2G2 | 
[V:4] A,,2C,3D,E,2 | 
[V:1] E2F2G2FE | 
[V:2] z8 | 
[V:3] A2GFE2F2 | 
[V:4] A,,2D,2C,2D,2 | 
[V:1] D4z2A,2 | 
[V:2] z8 | 
[V:3] G2FED2F2- | 
[V:4] G,,2B,,3C,D,2- | 
[V:1] B,2C2D2E2 | 
[V:2] z8 | 
[V:3] FGA2B2c2 | 
[V:4] D,2C,2B,,2A,,2 | 
[V:1] F2G3FED | 
[V:2] z8 | 
[V:3] d2B3AGF | 
[V:4] D,2G,,4G,,2 | 
[V:1] ^C4D2F2 | 
[V:2] z8 | 
[V:3] E4D4 | 
[V:4] A,,4z2D,2 | 
[V:1] G2A3Bc2- | 
[V:2] c8- | 
[V:3] z8 | 
[V:4] E,2F,3G,A,2- | 
[V:1] cBG2F4 | 
[V:2] c4d4- | 
[V:3] z8 | 
[V:4] A,G,E,2D,4 | 
[V:1] z2A4B2- | 
[V:2] d8 | 
[V:3] z8 | 
[V:4] z8 | 
[V:1] B2A4^G2 | 
[V:2] e8 | 
[V:3] z8 | 
[V:4] z8 | 
[V:1] A8- | 
[V:2] A8 | 
[V:3] z8 | 
[V:4] A,,2C,2D,2F,2- | 
[V:1] A8- | 
[V:2] z8 | 
[V:3] A2c2d2f2- | 
[V:4] F,2E,2D,2C,B,, | 
[V:1] A4z4 | 
[V:2] A2c2d2f2- | 
[V:3] f2e2d2cB | 
[V:4] A,,4D,4 | 
[V:1] A,2C2D2F2- | 
[V:2] f2e2d2cB | 
[V:3] A4z2D2- | 
[V:4] z8 | 
[V:1] F2E2D2CB, | 
[V:2] A4z4 | 
[V:3] D2C2D2E2 | 
[V:4] z2A,,2B,,2C,2 | 
[V:1] A,2D4G2 | 
[V:2] z8 | 
[V:3] F4G4 | 
[V:4] D,4B,,4 | 
[V:1] F2E4D2- | 
[V:2] z8 | 
[V:3] A4G2F2 | 
[V:4] A,,2C,4D,2 | 
[V:1] D2^C2D4- | 
[V:2] z8 | 
[V:3] E4D4- | 
[V:4] A,,4D,4- | 
[V:1] D8 ||  
[V:2] A8 ||  
[V:3] D8 ||  
[V:4] D,8 ||  
[V:1]  [K:C] [K:clef=treble][M:4/2]z8 | 
[V:2]  [K:C] [K:clef=treble-8][M:4/2]d4d4 | 
[V:3]  [K:C] [K:clef=treble-8][M:4/2]z8 | 
[V:4]  [K:C] [K:clef=bass][M:4/2]z8 | 
[V:1] z8 | 
[V:2] c4A4 | 
[V:3] z8 | 
[V:4] z8 | 
[V:1] z8 | 
[V:2] B2A2G2F2 | 
[V:3] z8 | 
[V:4] D,4D,4 | 
[V:1] z8 | 
[V:2] E4A4- | 
[V:3] z8 | 
[V:4] C,4A,,4 | 
[V:1] z8 | 
[V:2] A2^G^F^G4 | 
[V:3] z8 | 
[V:4] B,,8 | 
[V:1] A4A4 | 
[V:2] A4c4 | 
[V:3] z8 | 
[V:4] A,,8 | 
[V:1] G4E4 | 
[V:2] d4e4 | 
[V:3] z8 | 
[V:4] B,,4C,4 | 
[V:1] D2F3EDC | 
[V:2] f4d4 | 
[V:3] A4A4 | 
[V:4] D,4D,4 | 
[V:1] B,4E4- | 
[V:2] z8 | 
[V:3] G4E4 | 
[V:4] E,4C,4 | 
[V:1] E2DCD4 | 
[V:2] A4B4 | 
[V:3] F4F4 | 
[V:4] D,8 | 
[V:1] E8 | 
[V:2] A2c4BA | 
[V:3] E8 | 
[V:4] A,,8 | 
[V:1] z8 | 
[V:2] G4z4 | 
[V:3] E4E2F2- | 
[V:4] C,4C,2D,2- | 
[V:1] z8 | 
[V:2] z8 | 
[V:3] FGA2D2G2- | 
[V:4] D,2C,2B,,4 | 
[V:1] z8 | 
[V:2] z8 | 
[V:3] G2^F2G4 | 
[V:4] A,,4G,,4 | 
[V:1] G6FG | 
[V:2] G3AB2c2 | 
[V:3] z8 | 
[V:4] z8 | 
[V:1] A4A2G2- | 
[V:2] A2c3de2- | 
[V:3] z8 | 
[V:4] z8 | 
[V:1] GFEDF4 | 
[V:2] edcBA2d2- | 
[V:3] z8 | 
[V:4] z8 | 
[V:1] E8 | 
[V:2] d2^cB^c4 | 
[V:3] z8 | 
[V:4] z8 | 
[V:1] z8 | 
[V:2] z8 | 
[V:3] d6cd | 
[V:4] D,3E,F,2G,2 | 
[V:1] z8 | 
[V:2] z8 | 
[V:3] e4e2d2- | 
[V:4] E,2G,3A,B,2- | 
[V:1] z8 | 
[V:2] z8 | 
[V:3] dcBAc4 | 
[V:4] B,A,G,F,E,2A,2- | 
[V:1] z8 | 
[V:2] z8 | 
[V:3] B8 | 
[V:4] A,2^G,^F,G,4 | 
[V:1] A6A2 | 
[V:2] A3Bc2d2- | 
[V:3] z8 | 
[V:4] z8 | 
[V:1] A4B4 | 
[V:2] d2c2d2f2 | 
[V:3] z8 | 
[V:4] z8 | 
[V:1] c2B3AGF | 
[V:2] e2d3cBA | 
[V:3] z8 | 
[V:4] z8 | 
[V:1] E2A4^G2 | 
[V:2] c2d2B4 | 
[V:3] z8 | 
[V:4] z8 | 
[V:1] A4z4 | 
[V:2] A4z4 | 
[V:3] z4A4 | 
[V:4] A,,4D,4 | 
[V:1] z8 | 
[V:2] z8 | 
[V:3] d4d2d2- | 
[V:4] D,2D,4F,2 | 
[V:1] z8 | 
[V:2] z8 | 
[V:3] d2c2d2cB | 
[V:4] E,4D,4 | 
[V:1] z8 | 
[V:2] z8 | 
[V:3] A4G2A2- | 
[V:4] C,2D,2E,2A,,2- | 
[V:1] z8 | 
[V:2] z8 | 
[V:3] AGF2E4 | 
[V:4] A,,2D,4^C,2 | 
[V:1] z4D4 | 
[V:2] z4A4 | 
[V:3] D4F4 | 
[V:4] D,4D,4 | 
[V:1] F6F2 | 
[V:2] d6d2 | 
[V:3] A6A2 | 
[V:4] D,6D,2 | 
[V:1] F4F4 | 
[V:2] d4d4 | 
[V:3] A4A4 | 
[V:4] D,4D,4 | 
[V:1] E8 | 
[V:2] c8 | 
[V:3] A8 | 
[V:4] A,,8 | 
[V:1] E4G4 | 
[V:2] c4d4- | 
[V:3] G4B4 | 
[V:4] C,4G,,4 | 
[V:1] F4E4- | 
[V:2] d4B4 | 
[V:3] A4G4- | 
[V:4] D,4E,4 | 
[V:1] E2D2D4- | 
[V:2] c4A4- | 
[V:3] G4F4 | 
[V:4] C,4D,4 | 
[V:1] D2^CB,C4 | 
[V:2] A4A4 | 
[V:3] E8 | 
[V:4] A,,8 | 
[V:1] D8 | 
[V:2] A8 | 
[V:3] D4F4 | 
[V:4] z4D,4- | 
[V:1] z8 | 
[V:2] z8 | 
[V:3] F2F2F4 | 
[V:4] D,2D,2D,4 | 
[V:1] z8 | 
[V:2] z8 | 
[V:3] E2G4^F2 | 
[V:4] C,4A,,4 | 
[V:1] z8 | 
[V:2] z8 | 
[V:3] G4d4- | 
[V:4] G,,2B,,3C,D,2- | 
[V:1] z8 | 
[V:2] z8 | 
[V:3] d2d2d4 | 
[V:4] D,C,B,,A,,G,,4 | 
[V:1] z8 | 
[V:2] z8 | 
[V:3] c4A4 | 
[V:4] A,,4C,4 | 
[V:1] z8 | 
[V:2] z4d4- | 
[V:3] G2B3cd2- | 
[V:4] B,,2D,3E,F,2- | 
[V:1] z8 | 
[V:2] d2d2d4 | 
[V:3] dcBA^G4 | 
[V:4] F,E,D,C,B,,4 | 
[V:1] z8 | 
[V:2] c4A4 | 
[V:3] A4c4 | 
[V:4] A,,8 | 
[V:1] z4d4- | 
[V:2] G2B3cd2- | 
[V:3] B2G4F2 | 
[V:4] B,,3C,D,4 | 
[V:1] d2d2d4 | 
[V:2] dcBAG4 | 
[V:3] G2FED4 | 
[V:4] G,,2A,,2B,,4 | 
[V:1] c4A4 | 
[V:2] A4c4 | 
[V:3] E4F4 | 
[V:4] A,,8 | 
[V:1] G2B2c2d2- | 
[V:2] B2d3ef2- | 
[V:3] G2D2G2F2 | 
[V:4] z8 | 
[V:1] dcBA^G4 | 
[V:2] fedcB4 | 
[V:3] A4E4 | 
[V:4] z8 | 
[V:1] [M:3/1]A12 | 
[V:2] [M:3/1]e12 | 
[V:3] [M:3/1]z12 | 
[V:4] [M:3/1]A,,6B,,2C,4 | 
[V:1] z12 | 
[V:2] d8B4 | 
[V:3] z12 | 
[V:4] D,4F,4G,4 | 
[V:1] A12 | 
[V:2] c12 | 
[V:3] z12 | 
[V:4] A,4F,8 | 
[V:1] G8E4 | 
[V:2] B8c4 | 
[V:3] z12 | 
[V:4] G,4E,8 | 
[V:1] F8F4 | 
[V:2] d12 | 
[V:3] A12 | 
[V:4] D,12 | 
[V:1] E8C4 | 
[V:2] B8G4 | 
[V:3] G8E4 | 
[V:4] z12 | 
[V:1] D6E2F4 | 
[V:2] A4d6c2 | 
[V:3] F8F4 | 
[V:4] D,12 | 
[V:1] G6F2E2D2 | 
[V:2] e6d2B4 | 
[V:3] E6F2G4 | 
[V:4] C,8B,,4 | 
[V:1] C4F6E2 | 
[V:2] c12- | 
[V:3] A8G4 | 
[V:4] A,,8C,4- | 
[V:1] E8D4 | 
[V:2] c4A4B4 | 
[V:3] E4F8 | 
[V:4] C,4D,8 | 
[V:1] [M:2/1]E8 | 
[V:2] [M:2/1]c4B2e2- | 
[V:3] [M:2/1]E8 | 
[V:4] [M:2/1]C,4G,4 | 
[V:1] z8 | 
[V:2] e2c2d2f2- | 
[V:3] z8 | 
[V:4] A,4B,2A,2- | 
[V:1] z8 | 
[V:2] f2ed^c4 | 
[V:3] z4G4 | 
[V:4] A,2G,F,E,4 | 
[V:1] z8 | 
[V:2] d8 | 
[V:3] A4B2A2- | 
[V:4] D,4D,2F,2- | 
[V:1] z4G4 | 
[V:2] z8 | 
[V:3] A2F2E4 | 
[V:4] F,2E,D,C,4 | 
[V:1] A4B2A2- | 
[V:2] z8 | 
[V:3] D6F2- | 
[V:4] z2F,3G,A,2- | 
[V:1] A2F2E4 | 
[V:2] z8 | 
[V:3] F2EDC4 | 
[V:4] A,2F,2G,4 | 
[V:1] D2F2G2A2- | 
[V:2] d4e4 | 
[V:3] D4z4 | 
[V:4] F,3E,C,4 | 
[V:1] ABc4BA | 
[V:2] f2e4c2 | 
[V:3] z8 | 
[V:4] D,2C,2A,,4 | 
[V:1] ^G4A4 | 
[V:2] B4A4 | 
[V:3] z8 | 
[V:4] E,4A,,2D,2- | 
[V:1] z8 | 
[V:2] d4c4 | 
[V:3] z8 | 
[V:4] D,E,F,G,E,2A,2 | 
[V:1] z8 | 
[V:2] d6cB | 
[V:3] z8 | 
[V:4] D,4z4 | 
[V:1] z8 | 
[V:2] A4e4 | 
[V:3] z8 | 
[V:4] D,4C,4 | 
[V:1] z8 | 
[V:2] d2f4ed | 
[V:3] z8 | 
[V:4] D,6C,B,, | 
[V:1] A4G4 | 
[V:2] c2d2B4 | 
[V:3] z8 | 
[V:4] A,,4E,4 | 
[V:1] A6GF | 
[V:2] z2A4B2 | 
[V:3] z8 | 
[V:4] D,2F,4E,D, | 
[V:1] E4z4 | 
[V:2] c2A2d4 | 
[V:3] A4G4 | 
[V:4] C,2D,2B,,4 | 
[V:1] E4F4 | 
[V:2] c2e4d2 | 
[V:3] A6GF | 
[V:4] A,,4D,4 | 
[V:1] G4F2E2 | 
[V:2] e4d2c2 | 
[V:3] E4F4 | 
[V:4] C,4D,4 | 
[V:1] D4z4 | 
[V:2] B4c4 | 
[V:3] G4F2E2 | 
[V:4] G,,8 | 
[V:1] A6G2 | 
[V:2] d4c2B2 | 
[V:3] D4z4 | 
[V:4] z4A,,4 | 
[V:1] F4E4- | 
[V:2] A4c4- | 
[V:3] A8 | 
[V:4] D,4A,,4 | 
[V:1] E2D2D4- | 
[V:2] c4B4 | 
[V:3] G4F4 | 
[V:4] C,4D,4 | 
[V:1] D4^C4 | 
[V:2] A8 | 
[V:3] E8 | 
[V:4] A,,8 | 
[V:1] D8 | 
[V:2] z4A4 | 
[V:3] D8 | 
[V:4] z8 | 
[V:1] z8 | 
[V:2] _B4A4 | 
[V:3] z8 | 
[V:4] D,4D,2C,2- | 
[V:1] z8 | 
[V:2] G4F2_B2- | 
[V:3] z8 | 
[V:4] C,2C,2D,4 | 
[V:1] z8 | 
[V:2] B2A4G2 | 
[V:3] z8 | 
[V:4] D,2C,2_B,,4 | 
[V:1] z4A4 | 
[V:2] A8 | 
[V:3] z8 | 
[V:4] A,,8 | 
[V:1] _B4A4 | 
[V:2] G4F4 | 
[V:3] d4d2c2- | 
[V:4] z8 | 
[V:1] G4F2_B2- | 
[V:2] E4D2G2- | 
[V:3] c2c2d4 | 
[V:4] z8 | 
[V:1] B2A4G2 | 
[V:2] G2A2E4 | 
[V:3] d2c2B4 | 
[V:4] z8 | 
[V:1] [M:3/1]A12 | 
[V:2] [M:3/1]F8F4 | 
[V:3] [M:3/1]A12 | 
[V:4] [M:3/1]D,12 | 
[V:1] z12 | 
[V:2] G4E4A4 | 
[V:3] z12 | 
[V:4] C,12 | 
[V:1] F8D4 | 
[V:2] A8G4 | 
[V:3] d8d4 | 
[V:4] D,8B,,4 | 
[V:1] E8E4 | 
[V:2] A6G2E4 | 
[V:3] c8c4 | 
[V:4] A,,12 | 
[V:1] F6E2D4 | 
[V:2] D4F4G4 | 
[V:3] d6c2B4 | 
[V:4] z12 | 
[V:1] C8z4 | 
[V:2] A4c4d4 | 
[V:3] A12 | 
[V:4] A,,8D,4 | 
[V:1] z12 | 
[V:2] e4f6e2 | 
[V:3] z12 | 
[V:4] C,4D,4F,4- | 
[V:1] z12 | 
[V:2] d6^cB^c4 | 
[V:3] z12 | 
[V:4] F,4E,8 | 
[V:1] A8_B4 | 
[V:2] d8f4- | 
[V:3] d8d4 | 
[V:4] D,12 | 
[V:1] A4G6F2 | 
[V:2] f4e8 | 
[V:3] c8B4 | 
[V:4] F,4C,4E,4 | 
[V:1] F8E4 | 
[V:2] c12 | 
[V:3] A4G8 | 
[V:4] F,4C,8 | 
[V:1] F8z4 | 
[V:2] A12 | 
[V:3] F12 | 
[V:4] D,12 | 
[V:1] G6A2_B4 | 
[V:2] c4e4d4 | 
[V:3] z12 | 
[V:4] C,8G,,4 | 
[V:1] A6G2F4 | 
[V:2] f6e2d4 | 
[V:3] z12 | 
[V:4] D,4A,,4B,,4 | 
[V:1] E8z4 | 
[V:2] c8z4 | 
[V:3] G6A2_B4 | 
[V:4] C,4E,4D,4 | 
[V:1] z12 | 
[V:2] z12 | 
[V:3] A6G2F4 | 
[V:4] F,6E,2D,4 | 
[V:1] E4G4A4 | 
[V:2] c8c4 | 
[V:3] E8z4 | 
[V:4] C,8F,4 | 
[V:1] G8^F4 | 
[V:2] B4A8 | 
[V:3] z12 | 
[V:4] G,4D,8 | 
[V:1] G8z4 | 
[V:2] G8z4 | 
[V:3] E4G4A4 | 
[V:4] z4C,8 | 
[V:1] z12 | 
[V:2] z12 | 
[V:3] G8^F4 | 
[V:4] B,,4A,,8 | 
[V:1] G8F4 | 
[V:2] G4B4A4 | 
[V:3] G8z4 | 
[V:4] G,,8A,,4 | 
[V:1] D4E6D2 | 
[V:2] d4c4A4 | 
[V:3] G8F4 | 
[V:4] B,,4C,4D,4- | 
[V:1] D8^C4 | 
[V:2] B4A8 | 
[V:3] D4E8 | 
[V:4] D,4A,,8 | 
[V:1] D12 |]  
[V:2] A12 |]  
[V:3] D12 |]  
[V:4] D,12 |]  



